src/icons/hds/ui/download.svg

<svg viewBox="0 0 24 24" role="img" xmlns="http://www.w3.org/2000/svg"><g fill="none" fill-rule="evenodd"><path d="M0 0h24v24H0z"/><path d="M5 15v5h14v-5h2v7H3v-7h2zm8-13v12.24L16.243 11l1.414 1.414L12 18.071l-5.657-5.657L7.757 11 11 14.242V2h2z" fill="currentColor"/></g></svg>

<svg xmlns="http://www.w3.org/2000/svg" width="24" height="24" viewBox="0 0 24 24">
  <g fill="none" fill-rule="evenodd">
    <rect width="24" height="24"/>
    <path fill="currentColor" d="M5,15 L5,20 L19,20 L19,15 L21,15 L21,22 L3,22 L3,15 L5,15 Z M13,2 L13,14 L16,11 L17.5,12.5 L12,18 L6.5,12.5 L8,11 L11,14 L11,2 L13,2 Z"/>
  </g>
</svg>
